src/apps/22/preferences-desktop-baloo.svg

<svg width="22" height="22" version="1.1" viewBox="0 0 22 22" xmlns="http://www.w3.org/2000/svg">
 <defs>
  <filter id="filter9" x="-.048" y="-.048" width="1.096" height="1.096" color-interpolation-filters="sRGB">
   <feGaussianBlur stdDeviation="0.22"/>
  </filter>
 </defs>
 <linearGradient id="a" x2="0" y1="26" gradientUnits="userSpaceOnUse">
  <stop stop-color="#7cbaf8" offset="0"/>
  <stop stop-color="#f4fcff" offset="1"/>
 </linearGradient>
 <linearGradient id="c" x1="11.073" x2="10.959" y1="19.89" y2="1.9939" gradientUnits="userSpaceOnUse">
  <stop stop-color="#197cf1" offset="0"/>
  <stop stop-color="#21c9fb" offset="1"/>
 </linearGradient>
 <circle cx="10.984" cy="10.984" r="8.9838" fill="url(#c)" stroke-width=".8799"/>
 <g stroke-width="2">
  <path d="m11 5v1zm-3.5 2.5v1l0.5 1.5h1v-1h-1zm7 0-0.5 1.5h-1v1h1l0.5-1.5zm-4.25 0.5v1h1.5v-1zm-4.75 1.5v1l0.5 1.5h1v-1h-1zm11 0-0.5 1.5h-1v1h1l0.5-1.5zm-7.5 1.5v1zm-2 2v1c0 0.5304 0.21086 1.039 0.58594 1.4141 0.37507 0.3751 0.88363 0.58594 1.4141 0.58594s1.039-0.21084 1.4141-0.58594c0.3751-0.3751 0.58594-0.88366 0.58594-1.4141 0 0.5304 0.21084 1.039 0.58594 1.4141 0.3751 0.3751 0.88366 0.58594 1.4141 0.58594s1.039-0.21084 1.4141-0.58594c0.3751-0.3751 0.58594-0.88366 0.58594-1.4141v-1c0 0.5304-0.21084 1.039-0.58594 1.4141-0.3751 0.3751-0.88366 0.58594-1.4141 0.58594s-1.039-0.21084-1.4141-0.58594c-0.3751-0.3751-0.58594-0.88366-0.58594-1.4141 0 0.5304-0.21084 1.039-0.58594 1.4141-0.3751 0.3751-0.88363 0.58594-1.4141 0.58594s-1.039-0.21084-1.4141-0.58594c-0.37508-0.3751-0.58594-0.88366-0.58594-1.4141z" filter="url(#filter9)" opacity=".08"/>
  <path d="m11 5-.75 1.5v1.5h1.5v-1.5zm-2.75 1-.75 1.5.5 1.5h1v-1.5zm5.5 0-.75 1.5v1.5h1l.5-1.5zm-7.5 2-.75 1.5.5 1.5h1v-1.5zm9.5 0-.75 1.5v1.5h1l.5-1.5zm-4.75 1a2 2 0 0 0 -2 2 2 2 0 0 0 -2 2 2 2 0 0 0 2 2 2 2 0 0 0 2-2 2 2 0 0 0 2 2 2 2 0 0 0 2-2 2 2 0 0 0 -2-2 2 2 0 0 0 -2-2z" fill="url(#a)"/>
 </g>
</svg>

<svg xmlns="http://www.w3.org/2000/svg" width="22" height="22" viewBox="0 0 22 22"><defs><linearGradient id="b" x1="7.937" x2="7.937" y1="15.081" y2="1.852" gradientTransform="translate(-1.57 -1.559)scale(1.48476)" gradientUnits="userSpaceOnUse"><stop offset="0" stop-color="#3377f4"/><stop offset="1" stop-color="#5194f5"/></linearGradient><filter id="c" width="1.096" height="1.096" x="-.048" y="-.048" color-interpolation-filters="sRGB"><feGaussianBlur stdDeviation=".22"/></filter></defs><linearGradient id="a" x2="0" y1="26" gradientUnits="userSpaceOnUse"><stop offset="0" stop-color="#7cbaf8"/><stop offset="1" stop-color="#f4fcff"/></linearGradient><rect width="22" height="22" fill="url(#a)" rx="11" ry="11" style="fill:url(#b);stroke-width:.785714"/><g stroke-width="2"><path d="M11 5v1ZM7.5 7.5v1L8 10h1V9H8Zm7 0L14 9h-1v1h1l.5-1.5Zm-4.25.5v1h1.5V8ZM5.5 9.5v1L6 12h1v-1H6Zm11 0L16 11h-1v1h1l.5-1.5zM9 11v1zm-2 2v1a2 2 0 0 0 4 0 2 2 0 0 0 4 0v-1a2 2 0 0 1-4 0 2 2 0 0 1-4 0" filter="url(#c)" opacity=".08" transform="translate(-3.599 -2.935)scale(1.32714)"/><path fill="url(#a)" d="m11 5-.75 1.5V8h1.5V6.5ZM8.25 6 7.5 7.5 8 9h1V7.5Zm5.5 0L13 7.5V9h1l.5-1.5Zm-7.5 2L5.5 9.5 6 11h1V9.5Zm9.5 0L15 9.5V11h1l.5-1.5ZM11 9a2 2 0 0 0-2 2 2 2 0 0 0-2 2 2 2 0 0 0 2 2 2 2 0 0 0 2-2 2 2 0 0 0 2 2 2 2 0 0 0 2-2 2 2 0 0 0-2-2 2 2 0 0 0-2-2" style="fill:url(#a)" transform="translate(-3.599 -2.935)scale(1.32714)"/></g></svg>
